images/logo.svg

<svg fill="none" height="44" viewBox="0 0 70 44" width="70" xmlns="http://www.w3.org/2000/svg"><path d="m12.8097 43.9999c-1.2496 0-2.1445-.2699-2.6848-.8095-.54033-.5734-.8105-1.6359-.8105-3.1875 0-1.0456.10131-2.3779.30394-3.9969.23639-1.6527.60786-3.9126 1.11446-6.7796.878-5.2955 1.5703-9.8826 2.0769-13.7615.3039-2.4285.4559-4.4523.4559-6.07127 0-1.51782-.5573-2.27673-1.6717-2.27673-.878 0-1.94179.45535-3.1913 1.36604-1.21575.87696-2.56657 2.29356-4.05248 4.24986-.47278.6409-.99623.9613-1.57033.9613-.47279 0-.89492-.2192-1.2664-.6577-.3377-.4722-.50655-.995-.50655-1.5684 0-.5397.10131-1.0794.30393-1.61902.2364-.5734.60787-1.21426 1.11443-1.92257 1.62099-2.25986 3.42772-3.99692 5.42018-5.21118 1.99247-1.24798 3.98492-1.871968 5.97742-1.871968 1.8574 0 3.2757.590258 4.2551 1.770788 1.0131 1.18052 1.5196 2.90072 1.5196 5.16058 0 .91069-.0844 1.99002-.2532 3.23797-.1689 1.2143-.3209 2.2093-.4559 2.9851-.1351.7758-.2364 1.3154-.304 1.619 1.925-5.4979 4.0863-9.32616 6.484-11.48484 2.3977-2.1924 5.0318-3.288598 7.9023-3.288598 2.1951 0 3.9174.775768 5.1669 2.327318 1.2833 1.55155 1.9249 3.74395 1.9249 6.57721 0 1.11311-.1519 2.49601-.4559 4.14871 1.6886-4.65465 3.6641-7.99385 5.9268-10.0176 2.2626-2.02376 4.8629-3.035638 7.801-3.035638 2.3639 0 4.1706.758908 5.4201 2.276728 1.2833 1.51782 1.925 3.64276 1.925 6.37483 0 1.48408-.2195 3.28858-.6586 5.41358l-3.09 14.4698c-.3377 1.6865-.5065 3.1368-.5065 4.3511 0 1.4166.3208 2.4791.9624 3.1874.6755.7083 1.6041 1.0625 2.7861 1.0625 1.1144 0 2.1951-.371 3.242-1.1131 1.0806-.742 2.347-1.9731 3.7992-3.6933.4052-.4722.8611-.7083 1.3677-.7083.439 0 .7767.2023 1.0131.6071.2702.4047.4053.9613.4053 1.6696 0 1.3154-.3209 2.361-.9625 3.1368-1.7561 2.1249-3.4953 3.6765-5.2176 4.6546-1.7223.9782-3.529 1.4673-5.4201 1.4673-2.8705 0-5.1163-.8433-6.7373-2.5297-1.621-1.7202-2.4315-4.0138-2.4315-6.8808 0-1.99.4053-4.8739 1.2158-8.6516l2.0262-9.2586c.0676-.3036.1858-.8433.3546-1.6191.1689-.7757.3039-1.5009.4053-2.1755.1013-.7083.1519-1.3998.1519-2.0743 0-1.18057-.2364-2.05752-.7092-2.63092-.439-.60713-1.0806-.91069-1.9249-.91069-1.5872 0-3.2588 1.02874-5.0149 3.08621-1.7223 2.0238-3.3771 5.3967-4.9643 10.1188-1.5534 4.7221-2.8198 10.8608-3.7992 18.4162-.2364 2.0237-.6585 3.3898-1.2664 4.0981-.5741.6746-1.5197 1.0119-2.8367 1.0119-1.1482 0-1.9925-.2699-2.5328-.8095-.5066-.5397-.7598-1.5516-.7598-3.0357 0-1.3829.1857-3.1874.5572-5.4135.3714-2.2599.8442-4.9076 1.4183-7.9433 1.5535-8.1624 2.3302-13.4242 2.3302-15.7853 0-1.28168-.2533-2.22609-.7598-2.83322-.4728-.60713-1.1989-.91069-2.1782-.91069-1.6548 0-3.3602.94442-5.1163 2.83321-1.7561 1.8552-3.4784 5.1775-5.1669 9.967-1.6547 4.7559-3.0393 11.1982-4.1538 19.3269-.2364 1.7202-.5909 2.9176-1.0637 3.5922-.4391.6746-1.3171 1.0119-2.6341 1.0119z" fill="#5454ab"/><path d="m11.8028 43.1566c-1.2495 0-2.14441-.2698-2.68474-.8095-.54033-.5734-.81049-1.6359-.81049-3.1874 0-1.0456.10131-2.3779.30393-3.9969.2364-1.6528.60787-3.9126 1.11443-6.7796.87807-5.2955 1.57037-9.8827 2.07687-13.7616.304-2.4285.4559-4.4522.4559-6.07123 0-1.51782-.5572-2.27673-1.6716-2.27673-.87805 0-1.94183.45535-3.19134 1.36604-1.21574.87696-2.56657 2.29359-4.05247 4.24992-.47279.6408-.99623.9613-1.57033.9613-.47279 0-.894925-.2193-1.266401-.6578-.337706-.4722-.506559-.995-.506559-1.5684 0-.5396.101312-1.07932.303935-1.61898.236394-.5734.607871-1.21426 1.114425-1.92257 1.62099-2.25986 3.42772-3.99692 5.42018-5.21118 1.99247-1.24798 3.98496-1.87197 5.97736-1.87197 1.8574 0 3.2758.590261 4.2551 1.77079 1.0132 1.18052 1.5197 2.90071 1.5197 5.16058 0 .91069-.0844 1.99002-.2533 3.23803-.1688 1.2142-.3208 2.2092-.4559 2.985s-.2364 1.3155-.3039 1.619c1.9249-5.49785 4.0862-9.32612 6.4839-11.4848 2.3978-2.1924 5.0319-3.2886 7.9024-3.2886 2.1951 0 3.9174.775772 5.1669 2.32732 1.2832 1.55155 1.9249 3.74395 1.9249 6.57721 0 1.11307-.152 2.49597-.4559 4.14867 1.6885-4.65461 3.6641-7.99381 5.9267-10.01757 2.2627-2.02375 4.863-3.03563 7.801-3.03563 2.364 0 4.1707.758908 5.4202 2.27673 1.2833 1.51781 1.9249 3.64276 1.9249 6.37483 0 1.48404-.2195 3.28864-.6585 5.41354l-3.09 14.4699c-.3377 1.6864-.5066 3.1368-.5066 4.351 0 1.4167.3209 2.4791.9625 3.1875.6754.7083 1.6041 1.0624 2.7861 1.0624 1.1144 0 2.1951-.371 3.242-1.113 1.0806-.7421 2.347-1.9732 3.7991-3.6934.4053-.4722.8612-.7083 1.3678-.7083.439 0 .7767.2024 1.0131.6071.2701.4048.4052.9613.4052 1.6696 0 1.3155-.3208 2.3611-.9624 3.1368-1.7561 2.125-3.4953 3.6765-5.2176 4.6547-1.7223.9781-3.529 1.4672-5.4202 1.4672-2.8705 0-5.1162-.8432-6.7372-2.5297-1.621-1.7202-2.4315-4.0138-2.4315-6.8808 0-1.99.4052-4.8738 1.2157-8.6515l2.0263-9.2587c.0675-.3036.1857-.8432.3546-1.619.1688-.7758.3039-1.501.4052-2.1755.1013-.7084.152-1.3998.152-2.0744 0-1.18053-.2364-2.05749-.7092-2.63088-.439-.60713-1.0807-.91069-1.9249-.91069-1.5872 0-3.2589 1.02874-5.015 3.08622-1.7223 2.02375-3.377 5.39665-4.9642 10.11875-1.5535 4.7221-2.8199 10.8609-3.7992 18.4162-.2364 2.0238-.6585 3.3898-1.2664 4.0981-.5741.6746-1.5197 1.0119-2.8367 1.0119-1.1482 0-1.9925-.2698-2.5328-.8095-.5066-.5397-.7599-1.5515-.7599-3.0356 0-1.3829.1858-3.1875.5572-5.4136.3715-2.2598.8443-4.9076 1.4184-7.9432 1.5534-8.1625 2.3302-13.4243 2.3302-15.7853 0-1.28174-.2533-2.22616-.7599-2.83328-.4728-.60713-1.1988-.91069-2.1782-.91069-1.6547 0-3.3601.94442-5.1162 2.83325-1.7561 1.85512-3.4784 5.17742-5.1669 9.96702-1.6548 4.7558-3.0394 11.1981-4.1538 19.3269-.2364 1.7202-.591 2.9175-1.0638 3.5921-.439.6746-1.317 1.0119-2.6341 1.0119z" fill="#f46662"/></svg>

<svg width="70" height="44" viewBox="0 0 70 44" fill="none" xmlns="http://www.w3.org/2000/svg">
<path d="M12.8097 43.9999C11.5601 43.9999 10.6652 43.73 10.1249 43.1904C9.58457 42.617 9.3144 41.5545 9.3144 40.0029C9.3144 38.9573 9.41571 37.625 9.61834 36.006C9.85473 34.3533 10.2262 32.0934 10.7328 29.2264C11.6108 23.9309 12.3031 19.3438 12.8097 15.4649C13.1136 13.0364 13.2656 11.0126 13.2656 9.39363C13.2656 7.87581 12.7083 7.1169 11.5939 7.1169C10.7159 7.1169 9.65211 7.57225 8.4026 8.48294C7.18685 9.3599 5.83603 10.7765 4.35012 12.7328C3.87734 13.3737 3.35389 13.6941 2.77979 13.6941C2.307 13.6941 1.88487 13.4749 1.51339 13.0364C1.17569 12.5642 1.00684 12.0414 1.00684 11.468C1.00684 10.9283 1.10815 10.3886 1.31077 9.84898C1.54717 9.27558 1.91864 8.63472 2.4252 7.92641C4.04619 5.66655 5.85292 3.92949 7.84538 2.71523C9.83785 1.46725 11.8303 0.843262 13.8228 0.843262C15.6802 0.843262 17.0985 1.43352 18.0779 2.61405C19.091 3.79457 19.5975 5.51477 19.5975 7.77463C19.5975 8.68532 19.5131 9.76465 19.3443 11.0126C19.1754 12.2269 19.0234 13.2219 18.8884 13.9977C18.7533 14.7735 18.652 15.3131 18.5844 15.6167C20.5094 10.1188 22.6707 6.29054 25.0684 4.13186C27.4661 1.93946 30.1002 0.843262 32.9707 0.843262C35.1658 0.843262 36.8881 1.61903 38.1376 3.17058C39.4209 4.72213 40.0625 6.91453 40.0625 9.74779C40.0625 10.8609 39.9106 12.2438 39.6066 13.8965C41.2952 9.24185 43.2707 5.90265 45.5334 3.8789C47.796 1.85514 50.3963 0.843262 53.3344 0.843262C55.6983 0.843262 57.505 1.60217 58.7545 3.11999C60.0378 4.63781 60.6795 6.76275 60.6795 9.49482C60.6795 10.9789 60.46 12.7834 60.0209 14.9084L56.9309 29.3782C56.5932 31.0647 56.4244 32.515 56.4244 33.7293C56.4244 35.1459 56.7452 36.2084 57.3868 36.9167C58.0623 37.625 58.9909 37.9792 60.1729 37.9792C61.2873 37.9792 62.368 37.6082 63.4149 36.8661C64.4955 36.1241 65.7619 34.893 67.2141 33.1728C67.6193 32.7006 68.0752 32.4645 68.5818 32.4645C69.0208 32.4645 69.3585 32.6668 69.5949 33.0716C69.8651 33.4763 70.0002 34.0329 70.0002 34.7412C70.0002 36.0566 69.6793 37.1022 69.0377 37.878C67.2816 40.0029 65.5424 41.5545 63.8201 42.5326C62.0978 43.5108 60.2911 43.9999 58.4 43.9999C55.5295 43.9999 53.2837 43.1566 51.6627 41.4702C50.0417 39.75 49.2312 37.4564 49.2312 34.5894C49.2312 32.5994 49.6365 29.7155 50.447 25.9378L52.4732 16.6792C52.5408 16.3756 52.659 15.8359 52.8278 15.0601C52.9967 14.2844 53.1317 13.5592 53.2331 12.8846C53.3344 12.1763 53.385 11.4848 53.385 10.8103C53.385 9.62973 53.1486 8.75278 52.6758 8.17938C52.2368 7.57225 51.5952 7.26869 50.7509 7.26869C49.1637 7.26869 47.4921 8.29743 45.736 10.3549C44.0137 12.3787 42.3589 15.7516 40.7717 20.4737C39.2183 25.1958 37.9519 31.3345 36.9725 38.8899C36.7361 40.9136 36.314 42.2797 35.7061 42.988C35.132 43.6626 34.1864 43.9999 32.8694 43.9999C31.7212 43.9999 30.8769 43.73 30.3366 43.1904C29.83 42.6507 29.5768 41.6388 29.5768 40.1547C29.5768 38.7718 29.7625 36.9673 30.134 34.7412C30.5054 32.4813 30.9782 29.8336 31.5523 26.7979C33.1058 18.6355 33.8825 13.3737 33.8825 11.0126C33.8825 9.73092 33.6292 8.78651 33.1227 8.17938C32.6499 7.57225 31.9238 7.26869 30.9445 7.26869C29.2897 7.26869 27.5843 8.21311 25.8282 10.1019C24.0721 11.9571 22.3498 15.2794 20.6613 20.0689C19.0066 24.8248 17.622 31.2671 16.5075 39.3958C16.2711 41.116 15.9166 42.3134 15.4438 42.988C15.0047 43.6626 14.1267 43.9999 12.8097 43.9999Z" fill="#5454AB"/>
<path d="M11.8028 43.1566C10.5533 43.1566 9.65839 42.8868 9.11806 42.3471C8.57773 41.7737 8.30757 40.7112 8.30757 39.1597C8.30757 38.1141 8.40888 36.7818 8.6115 35.1628C8.8479 33.51 9.21937 31.2502 9.72593 28.3832C10.604 23.0877 11.2963 18.5005 11.8028 14.6216C12.1068 12.1931 12.2587 10.1694 12.2587 8.55037C12.2587 7.03255 11.7015 6.27364 10.5871 6.27364C9.70905 6.27364 8.64527 6.72899 7.39576 7.63968C6.18002 8.51664 4.82919 9.93327 3.34329 11.8896C2.8705 12.5304 2.34706 12.8509 1.77296 12.8509C1.30017 12.8509 0.878035 12.6316 0.506559 12.1931C0.168853 11.7209 0 11.1981 0 10.6247C0 10.0851 0.101312 9.54538 0.303935 9.00572C0.540329 8.43232 0.911806 7.79146 1.41836 7.08315C3.03935 4.82329 4.84608 3.08623 6.83854 1.87197C8.83101 0.62399 10.8235 0 12.8159 0C14.6733 0 16.0917 0.590261 17.071 1.77079C18.0842 2.95131 18.5907 4.6715 18.5907 6.93137C18.5907 7.84206 18.5063 8.92139 18.3374 10.1694C18.1686 11.3836 18.0166 12.3786 17.8815 13.1544C17.7464 13.9302 17.6451 14.4699 17.5776 14.7734C19.5025 9.27555 21.6638 5.44728 24.0615 3.2886C26.4593 1.0962 29.0934 0 31.9639 0C34.159 0 35.8813 0.775772 37.1308 2.32732C38.414 3.87887 39.0557 6.07127 39.0557 8.90453C39.0557 10.0176 38.9037 11.4005 38.5998 13.0532C40.2883 8.39859 42.2639 5.05939 44.5265 3.03563C46.7892 1.01188 49.3895 0 52.3275 0C54.6915 0 56.4982 0.758908 57.7477 2.27673C59.031 3.79454 59.6726 5.91949 59.6726 8.65156C59.6726 10.1356 59.4531 11.9402 59.0141 14.0651L55.9241 28.535C55.5864 30.2214 55.4175 31.6718 55.4175 32.886C55.4175 34.3027 55.7384 35.3651 56.38 36.0735C57.0554 36.7818 57.9841 37.1359 59.1661 37.1359C60.2805 37.1359 61.3612 36.7649 62.4081 36.0229C63.4887 35.2808 64.7551 34.0497 66.2072 32.3295C66.6125 31.8573 67.0684 31.6212 67.575 31.6212C68.014 31.6212 68.3517 31.8236 68.5881 32.2283C68.8582 32.6331 68.9933 33.1896 68.9933 33.8979C68.9933 35.2134 68.6725 36.259 68.0309 37.0347C66.2748 39.1597 64.5356 40.7112 62.8133 41.6894C61.091 42.6675 59.2843 43.1566 57.3931 43.1566C54.5226 43.1566 52.2769 42.3134 50.6559 40.6269C49.0349 38.9067 48.2244 36.6131 48.2244 33.7461C48.2244 31.7561 48.6296 28.8723 49.4401 25.0946L51.4664 15.8359C51.5339 15.5323 51.6521 14.9927 51.821 14.2169C51.9898 13.4411 52.1249 12.7159 52.2262 12.0414C52.3275 11.333 52.3782 10.6416 52.3782 9.967C52.3782 8.78647 52.1418 7.90951 51.669 7.33612C51.23 6.72899 50.5883 6.42543 49.7441 6.42543C48.1569 6.42543 46.4852 7.45417 44.7291 9.51165C43.0068 11.5354 41.3521 14.9083 39.7649 19.6304C38.2114 24.3525 36.945 30.4913 35.9657 38.0466C35.7293 40.0704 35.3072 41.4364 34.6993 42.1447C34.1252 42.8193 33.1796 43.1566 31.8626 43.1566C30.7144 43.1566 29.8701 42.8868 29.3298 42.3471C28.8232 41.8074 28.5699 40.7956 28.5699 39.3115C28.5699 37.9286 28.7557 36.124 29.1271 33.8979C29.4986 31.6381 29.9714 28.9903 30.5455 25.9547C32.0989 17.7922 32.8757 12.5304 32.8757 10.1694C32.8757 8.88766 32.6224 7.94324 32.1158 7.33612C31.643 6.72899 30.917 6.42543 29.9376 6.42543C28.2829 6.42543 26.5775 7.36985 24.8214 9.25868C23.0653 11.1138 21.343 14.4361 19.6545 19.2257C17.9997 23.9815 16.6151 30.4238 15.5007 38.5526C15.2643 40.2728 14.9097 41.4701 14.4369 42.1447C13.9979 42.8193 13.1199 43.1566 11.8028 43.1566Z" fill="#F46662"/>
</svg>
